svg/heart.svg

<?xml version="1.0" encoding="UTF-8"?>
<svg xmlns="http://www.w3.org/2000/svg" xmlns:xlink="http://www.w3.org/1999/xlink" width="32" height="32" viewBox="0 0 32 32">
<path fill-rule="nonzero" fill="rgb(0%, 0%, 0%)" fill-opacity="1" d="M 16 30.273438 L 15.589844 29.933594 C 14.8125 29.28125 13.761719 28.578125 12.539062 27.761719 C 7.789062 24.578125 1.28125 20.226562 1.28125 12.800781 C 1.28125 8.210938 5.007812 4.480469 9.601562 4.480469 C 12.074219 4.476562 14.421875 5.578125 16 7.488281 C 17.574219 5.578125 19.921875 4.472656 22.398438 4.480469 C 26.988281 4.480469 30.71875 8.210938 30.71875 12.800781 C 30.71875 20.226562 24.210938 24.578125 19.460938 27.761719 C 18.238281 28.578125 17.1875 29.28125 16.410156 29.933594 Z M 16 30.273438 "/>
</svg>

<svg role="img" viewBox="0 0 32 32" xmlns="http://www.w3.org/2000/svg"><path d="m16 30.273-.41-.34c-.777-.652-1.828-1.355-3.05-2.171C7.79 24.578 1.28 20.227 1.28 12.8c0-4.59 3.727-8.32 8.32-8.32A8.28 8.28 0 0 1 16 7.487a8.28 8.28 0 0 1 6.398-3.008c4.59 0 8.32 3.73 8.32 8.32 0 7.427-6.507 11.778-11.257 14.962-1.223.816-2.273 1.52-3.05 2.172Zm0 0"/></svg>
